X:1
T:Who Came Down from Heaven?
T:Who Came Down from Heaven?
T:Stephen Van Rensselaer Ford, 1890
T:Anonymous
T:Public Domain Courtesy of the Cyber Hymnal™
C:Stephen Van Rensselaer Ford, 1890
Z:Public Domain
Z:Courtesy of the Cyber Hymnal™
%%score ( 1 2 ) 3
L:1/8
Q:1/4=85
M:2/4
K:C
V:1 treble 
V:2 treble 
V:3 bass 
V:1
"^1st Voice" EF Gc | BA G2 |"^2d Voice" GA Gc | ed c2 |"^1st Voice" EF Gc | BA G2 | %6
w: 1.~Who came down from|Heav’n a- bove?|Je- sus Christ, our|bless- èd Lord.|Who was God’s best|gift of love?|
w: 2.~Who was scourged and|cru- ci- fied?|Je- sus Christ, our|bless- èd Lord.|Who for guilt- y|sin- ners died?|
w: 3.~Who in Jo- seph’s|tomb had lain?|Je- sus Christ, our|bless- èd Lord.|Who in tri- umph|rose a- gain?|
w: 4.~Who as- cend- ed|in- to Heav’n?|Je- sus Christ, our|bless- èd Lord.|Who e- ter- nal|life has giv’n?|
"^2d Voice" GA Gc | ed c2 |"^All - Semi-Chorus" [Gd][Gd] [Gd][DG] | [Gc][Gd] [Ge]2 | %10
w: Je- sus Christ, our|bless- èd Lord.|Christ was born at|Beth- le- hem;|
w: Je- sus Christ, our|bless- èd Lord.|Christ a- toned for|all our guilt|
w: Je- sus Christ, our|bless- èd Lord.|In the tomb the|Sav- ior lay|
w: Je- sus Christ, our|bless- èd Lord.|Christ is fit- ting|up our home|
 [Ge][Ge] [Bd][Ac] | [GB][^FA] G2 | [CE][DF] [EG][Ec] | [GB][FA] [EG]2 | [EG][FA] [EG][Ec] | %15
w: Wise men, liv- ing|far a- way,|Saw His star, which|guid- ed them|To the man- ger|
w: On the cross of|Cal- va- ry;|There His pre- cious|blood was spilt;|There He died to|
w: While the an- gel|watched the door,|Till the morn of|the third day,|When He rose to|
w: In HIs Fa- ther’s|house on high;|If we love Him,|He will come|And trans- port us|
 [Ge][Fd] [Ec]2 |] %16
w: where He lay.|
w: make us free.|
w: die no more.|
w: to the sky.|
V:2
 x4 | x4 | x4 | x4 | x4 | x4 | x4 | x4 | x4 | x4 | x4 | x2 G2 | x4 | x4 | x4 | x4 |] %16
V:3
 [C,,C,]2 [C,,C,]2 | [G,,G,]2 [C,,C,]2 | [C,,C,]2 [C,,C,]2 | [G,,G,]2 [C,,C,]2 | %4
 [C,,C,]2 [C,,C,]2 | [G,,G,]2 [C,,C,]2 | [C,,C,]2 [C,,C,]2 | [G,,G,]2 [C,,C,]2 | G,,G, G,,F, | %9
 E,G, C,2 | C,C, G,,C, | D,D, G,,2 | C,C, C,C, | G,,G,, C,2 | C,C, C,C, | G,G,, C,2 |] %16

